X: 1
T:Angus Campbell
M:4/4
L:1/8
C:Scott Skinner
R:Reel
K:A
E2|:A2 cA EAce|a2 ga faec|dcBd cBAc|BABc BAGB|!
A2 cA EAce|a2 ga faec|dcBd cBAc|1BAGB A2 (3EFG:|2BAGB A2 (3efg||!
|:a2ea caed|(3cBA ce aece|ebgb ebgb|gefg agfe|!
a2 ea caed|(3cBA ce aecA|defe ceaf|1ecdB A2 (3efg:|2ecdB A2 (3EFG||
